X:93
T:Captain George Hunter
R:Strathspey
B:The Athole Collection
M:C|
L:1/8
K:B Minor
F<B B>c e>cB>A|F<B B>c e>c B2|F<B B>c d>ef>d|c<A e>c f/e/d/c/ B2:|
|:d/e/f/g/ a>f (3efd (3cBA|d/e/f/g/ a>f d>f a2|(3gbg (3faf (3efd (3cBA|
F<B B>c d>c B2:|

